img/nav-icon.svg

<svg width="24" height="24" viewBox="0 0 24 24" fill="none" xmlns="http://www.w3.org/2000/svg">
<path fill-rule="evenodd" clip-rule="evenodd" d="M1.00012 12C1.00012 11.4477 1.44784 11 2.00012 11H22.0001C22.5524 11 23.0001 11.4477 23.0001 12C23.0001 12.5523 22.5524 13 22.0001 13H2.00012C1.44784 13 1.00012 12.5523 1.00012 12Z" fill="white"/>
<path fill-rule="evenodd" clip-rule="evenodd" d="M1.00012 18C1.00012 17.4477 1.44784 17 2.00012 17H22.0001C22.5524 17 23.0001 17.4477 23.0001 18C23.0001 18.5523 22.5524 19 22.0001 19H2.00012C1.44784 19 1.00012 18.5523 1.00012 18Z" fill="white"/>
<path fill-rule="evenodd" clip-rule="evenodd" d="M1.00012 6C1.00012 5.44772 1.44784 5 2.00012 5H22.0001C22.5524 5 23.0001 5.44772 23.0001 6C23.0001 6.55228 22.5524 7 22.0001 7H2.00012C1.44784 7 1.00012 6.55228 1.00012 6Z" fill="white"/>
</svg>

<svg width="24" height="24" fill="none" xmlns="http://www.w3.org/2000/svg"><path fill-rule="evenodd" clip-rule="evenodd" d="M1 12a1 1 0 011-1h20a1 1 0 110 2H2a1 1 0 01-1-1zm0 6a1 1 0 011-1h20a1 1 0 110 2H2a1 1 0 01-1-1zM1 6a1 1 0 011-1h20a1 1 0 110 2H2a1 1 0 01-1-1z" fill="#fff"/></svg>
